assets/Soon arrow/Flat/soon_arrow_flat.svg

<svg width="32" height="32" viewBox="0 0 32 32" fill="none" xmlns="http://www.w3.org/2000/svg">
<path d="M29.62 9.82067L21.3 2.25067C20.68 1.69067 19.7 2.13067 19.7 2.96067V6.60067C19.7 6.95067 19.41 7.24067 19.06 7.24067H3.18C2.53 7.23067 2 7.77067 2 8.42067V12.6407C2 13.3007 2.53 13.8307 3.19 13.8307H19.07C19.42 13.8307 19.71 14.1207 19.71 14.4707V18.1107C19.71 18.9407 20.7 19.3807 21.31 18.8207L29.63 11.2507C30.04 10.8607 30.04 10.2007 29.62 9.82067Z" fill="#321B41"/>
<path d="M12.03 30.0007C10.3 30.0007 8.89001 28.5907 8.89001 26.8607V23.9807C8.89001 22.2507 10.3 20.8407 12.03 20.8407C13.76 20.8407 15.17 22.2507 15.17 23.9807V26.8607C15.17 28.5907 13.76 30.0007 12.03 30.0007ZM12.03 22.8307C11.4 22.8307 10.88 23.3407 10.88 23.9807V26.8607C10.88 27.4907 11.39 28.0107 12.03 28.0107C12.66 28.0107 13.18 27.5007 13.18 26.8607V23.9807C13.18 23.3407 12.66 22.8307 12.03 22.8307Z" fill="#321B41"/>
<path d="M15.98 26.8607C15.98 28.5907 17.39 30.0007 19.12 30.0007C20.85 30.0007 22.26 28.5907 22.26 26.8607V23.9807C22.26 22.2507 20.85 20.8407 19.12 20.8407C17.39 20.8407 15.98 22.2507 15.98 23.9807V26.8607ZM17.97 23.9807C17.97 23.3407 18.49 22.8307 19.12 22.8307C19.75 22.8307 20.27 23.3407 20.27 23.9807V26.8607C20.27 27.5007 19.75 28.0107 19.12 28.0107C18.48 28.0107 17.97 27.4907 17.97 26.8607V23.9807Z" fill="#321B41"/>
<path d="M5.37998 30.0007C4.25998 30.0007 3.17998 29.5907 2.34998 28.8407C1.93998 28.4707 1.89998 27.8407 2.26998 27.4307C2.63998 27.0207 3.26998 26.9807 3.67998 27.3507C4.14998 27.7707 4.74998 28.0007 5.37998 28.0007H5.52998C5.80998 27.9807 5.99998 27.8807 6.11998 27.7007C6.25998 27.4807 6.21998 27.2707 6.17998 27.1607C6.10998 26.9607 5.95998 26.8007 5.75998 26.7307L3.77998 25.9907C3.01998 25.7007 2.42998 25.1007 2.16998 24.3207C1.91998 23.5607 2.00998 22.7407 2.43998 22.0807C2.90998 21.3407 3.66998 20.9107 4.59998 20.8507C4.68998 20.8407 4.77998 20.8407 4.86998 20.8407C5.98998 20.8407 7.06998 21.2507 7.89998 22.0007C8.30998 22.3707 8.34998 23.0007 7.97998 23.4107C7.60998 23.8207 6.97998 23.8607 6.56998 23.4907C6.09998 23.0707 5.49998 22.8407 4.86998 22.8407H4.71998C4.43998 22.8607 4.24998 22.9607 4.12998 23.1407C3.98998 23.3607 4.02998 23.5707 4.06998 23.6807C4.13998 23.8807 4.28998 24.0407 4.48998 24.1107L6.46998 24.8507C7.22998 25.1407 7.81998 25.7407 8.07998 26.5207C8.32998 27.2807 8.23998 28.1007 7.80998 28.7607C7.33998 29.5007 6.57998 29.9307 5.64998 29.9907C5.55998 30.0007 5.46998 30.0007 5.37998 30.0007Z" fill="#321B41"/>
<path d="M28.11 29.5507C28.29 29.8407 28.61 30.0007 28.94 30.0007C29.03 30.0007 29.13 29.9907 29.23 29.9607C29.65 29.8307 29.94 29.4407 29.94 29.0007V21.8307C29.94 21.2807 29.49 20.8307 28.94 20.8307C28.39 20.8307 27.94 21.2807 27.94 21.8307V25.6607L25.07 21.2807C24.83 20.9107 24.37 20.7407 23.95 20.8707C23.53 21.0007 23.24 21.3907 23.24 21.8307V29.0007C23.24 29.5507 23.69 30.0007 24.24 30.0007C24.79 30.0007 25.24 29.5507 25.24 29.0007V25.1707L28.11 29.5507Z" fill="#321B41"/>
</svg>

<svg xmlns="http://www.w3.org/2000/svg" width="32" height="32" fill="none"><path fill="#321B41" d="M29.62 9.82 21.3 2.25a.956.956 0 0 0-1.6.71V6.6c0 .35-.29.64-.64.64H3.18C2.53 7.23 2 7.77 2 8.42v4.22c0 .66.53 1.19 1.19 1.19h15.88c.35 0 .64.29.64.64v3.64c0 .83.99 1.27 1.6.71l8.32-7.57a.977.977 0 0 0-.01-1.43ZM12.03 30c-1.73 0-3.14-1.41-3.14-3.14v-2.88c0-1.73 1.41-3.14 3.14-3.14 1.73 0 3.14 1.41 3.14 3.14v2.88c0 1.73-1.41 3.14-3.14 3.14Zm0-7.17c-.63 0-1.15.51-1.15 1.15v2.88a1.15 1.15 0 0 0 2.3 0v-2.88c0-.64-.52-1.15-1.15-1.15ZM15.98 26.86c0 1.73 1.41 3.14 3.14 3.14 1.73 0 3.14-1.41 3.14-3.14v-2.88c0-1.73-1.41-3.14-3.14-3.14-1.73 0-3.14 1.41-3.14 3.14v2.88Zm1.99-2.88a1.15 1.15 0 0 1 2.3 0v2.88a1.15 1.15 0 0 1-2.3 0v-2.88ZM5.38 30c-1.12 0-2.2-.41-3.03-1.16a.998.998 0 1 1 1.33-1.49c.47.42 1.07.65 1.7.65h.15c.28-.02.47-.12.59-.3.14-.22.1-.43.06-.54a.69.69 0 0 0-.42-.43l-1.98-.74c-.76-.29-1.35-.89-1.61-1.67-.25-.76-.16-1.58.27-2.24.47-.74 1.23-1.17 2.16-1.23.09-.01.18-.01.27-.01 1.12 0 2.2.41 3.03 1.16a.998.998 0 1 1-1.33 1.49c-.47-.42-1.07-.65-1.7-.65h-.15c-.28.02-.47.12-.59.3-.14.22-.1.43-.06.54.07.2.22.36.42.43l1.98.74c.76.29 1.35.89 1.61 1.67.25.76.16 1.58-.27 2.24-.47.74-1.23 1.17-2.16 1.23-.09.01-.18.01-.27.01ZM28.11 29.55c.18.29.5.45.83.45.09 0 .19-.01.29-.04.42-.13.71-.52.71-.96v-7.17c0-.55-.45-1-1-1s-1 .45-1 1v3.83l-2.87-4.38a.992.992 0 0 0-1.12-.41c-.42.13-.71.52-.71.96V29c0 .55.45 1 1 1s1-.45 1-1v-3.83l2.87 4.38Z"/></svg>
